X:1
T:Pittsburgh, LMD
T:E. Manford Clark, ca. 1901
T:Pittsburgh, LMD
T:Public Domain
C:E. Manford Clark, ca. 1901
Z:Public Domain
%%score ( 1 2 ) ( 3 4 )
L:1/8
M:9/8
K:D
V:1 treble 
V:2 treble 
V:3 bass 
V:4 bass 
V:1
 F(FE) D | [FA]3 [FA]3 ([GB][Ac])[Bd] | ([FA]3 [DF]2) [DF] (FE)D | [CE]3 [CE]3 ([CE][DF])[EG] | %4
 ([GB]3 [FA]2) F (FE)D | [FA]3 [FA]3 ([GB][Ac])[Bd] | [GB]3- [GB]2 [GB] ([Bd][Ac])[GB] | %7
 [FA]3 [Fd]3 (cB)[Gc] | [Fd]6 [FA][FA][FA] | ([Fd-]3 d2) A (FE)D | [CA]3- [CA]2 [EG] [EG]2 [EG] | %11
 ([Ge-]3 e2) A (AB)[Gc] | [Fd]6 [FA][FA][FA] | ([Af-]3 f2 d) ([Bd][^Ac])[Bd] | %14
 [GB]3- [GB]2 [GB] [GB]2 [GB] | ([FA-]3 A2 A) ([EA][GB])[Gc] | [Fd]3- [Fd]2 |] %17
V:2
 FFE D | x9 | x6 FED | x9 | x5 F FED | x9 | x9 | x6 G2 x | x9 | x3 F3 FED | x9 | x3 G3 G2 x | x9 | %13
 x3 ^A3 x3 | x9 | x3 F3 x3 | x5 |] %17
V:3
 [D,A,](A,G,) [D,F,] | [D,D]3 [D,D]3 [G,D]2 [G,D] | ([D,D]3 [D,A,]2) [D,A,] (A,G,)[D,F,] | %3
 [A,,A,]3 [A,,A,]3 [A,,A,]2 [A,,C] | [D,D]3- [D,D]2 [D,A,] (A,G,)[D,F,] | %5
 [D,D]3 [D,D]3 [G,D]2 [G,D] | [G,D]3- [G,D]2 [G,D] [G,D]2 [G,D] | [D,D]3 [D,A,]3 [A,,A,]2 [A,,A,] | %8
 [D,A,]6 [D,A,][D,A,][D,A,] | ([D,A,]3 [D,A,]3) [D,A,]2 [D,A,] | %10
 [A,,A,]3- [A,,A,]2 [A,,A,] [A,,A,]2 [A,,A,] | [A,,A,]3 [A,,A,]3 [A,,A,]2 [A,,A,] | %12
 [D,A,]6 [D,D][D,D][D,D] | [D,D]3 [D,D]3 [G,D]2 [G,D] | [G,D]3- [G,D]2 [G,D] [G,D]2 [G,D] | %15
 [A,D]3- [A,D]3 [A,,A,]2 [A,,A,] | [D,A,]3- [D,A,]2 |] %17
V:4
 x D,2 x | x9 | x6 D,2 x | x9 | x6 D,2 x | x9 | x9 | x9 | x9 | x9 | x9 | x9 | x9 | x9 | x9 | x9 | %16
 x5 |] %17

